X:1
T: The Disbanded Officer
N:
C:
S:
A:
O:
R:
M:4/4
K:A
I:speed 200
%W: A1
% voice 1 (1 lines, 45 notes)
K:A
M:4/4
L:1/16
A6 B2 d2 c2 B2 A2 |e4 e4 c4 A4 |a6 f2 f2 e2 d2 c2 |B2 c2 d2 B2 A2 G2 F2 E2 |A6 B2 d2 c2 B2 A2 |e4 e4 c4 A4 |a6 f2 f2 e2 d2 c2 |B2 A2 B2 c2 A8 |
%W: A2
% voice 1 (1 lines, 45 notes)
A6 B2 d2 c2 B2 A2 |e4 e4 c4 A4 |a6 f2 f2 e2 d2 c2 |B2 c2 d2 B2 A2 G2 F2 E2 |A6 B2 d2 c2 B2 A2 |e4 e4 c4 A4 |a6 f2 f2 e2 d2 c2 |B2 A2 B2 c2 A8 |
%W: B1
% voice 1 (1 lines, 38 notes)
a4 a4 e4 c4 |f4 f4 d4 B4 |e4 e4 c4 A4 |G2 A2 B2 G2 E8 |A6 B2 d2 c2 B2 A2 |e4 e4 c4 A4 |a6 f2 f2 e2 d2 c2 |B2 A2 B2 c2 A8 |
%W: B2
% voice 1 (1 lines, 38 notes)
a4 a4 e4 c4 |f4 f4 d4 B4 |e4 e4 c4 A4 |G2 A2 B2 G2 E8 |A6 B2 d2 c2 B2 A2 |e4 e4 c4 A4 |a6 f2 f2 e2 d2 c2 |B2 A2 B2 c2 A8 ||
